X: 86
M: 2/2	% The book has just "2".
L: 1/8
K: G
EDEF E2D2 | EDEF E2D2 | c4 B4 | A6 GA |\
EDEF E2D2 | EDEF E2c2 | B4 TA4 | G6 :: d2 |\
c2B2 A2G2 | AGAB A2d2 | Tc2B2 TA2G2 | TA4 A2d2 |
EDEF E2D2 | EDEF E2D2 |
c4 B4 | A6 GA |\
EDEF E2D2 | EDEF E2c2 | B4TA4 | G6 :|


